X:1
T:© James Gibb 1998
T:#
T:Introit for Easter day - Gibb
%%score [ 1 2 3 4 ]
L:1/8
M:4/4
K:A
V:1 treble nm="Soprano" snm="S"
V:2 treble nm="Alto" snm="A"
V:3 treble-8 nm="Tenor" snm="T"
V:4 bass nm="Bass" snm="B"
V:1
 x2 x4 z8 | z6 |[M:3/4] z2 E2 A2 | d4 B2 | e6 | e2 d2 c2 | B6 | d2 c2 B2 | A6 | %9
w: ||He is|risen in-|deed!|Al- le- lu-|ia,|al- le- lu-|ia,|
[M:4/4] z2 e2 d2 c2 | B2 e2 d2 c2 | B2 e2 d2 c2 |[M:3/4] B2 A4 |[M:5/4] d6 f4 | e6- e4 |] %15
w: al- le- lu-|ia, al- le- lu-|ia, al- le- lu-|ia, al-|le- lu-|ia! *|
V:2
 x2 x4 z8 | z6 |[M:3/4] z2 E2 E2 | ^E4 F2 | G6 | z6 | z2 E2 D2 | C2 E4- | E2 D2 C2 | %9
w: ||He is|risen in-|deed!||Al- le-|lu- ia,|* al- le-|
[M:4/4] B,2 C2 D2 A2 | F2 A2 D2 A2 | F2 A2 A4- |[M:3/4] A6 |[M:5/4] A6 A4 | A6- A4 |] %15
w: lu- ia, al- le-|lu- ia, al- le-|lu- ia, al\-||le- lu-|ia! *|
V:3
 x2 x4 z8 | z6 |[M:3/4] z2 E2 F2 | G4 A2 | B6 | z4 e2 | d2 c2 B2- | B2 z2 d2 | c2 B2 A2- | %9
w: ||He is|risen in-|deed!|Al-|le- lu- ia,|~ al-|le- lu- ia,|
[M:4/4] A4 z2 e2 | d2 c2 B2 e2 | d2 c2 B2 A2- |[M:3/4] A6 |[M:5/4] B6 A4 | c6- c4 |] %15
w: * al-|le- lu- ia, al-|le- lu- ia, al\-||le- lu-|ia! *|
V:4
"^Introit for Easter Day" A,>F, A,2 A,2 z A, | A,G,F,A,-"^James Gibb\n(1944- )" A,2 | %2
w: Al- le- lu- ia! The|Lord is ris- en! *|
[M:3/4] z2 E,2 C,2 | B,,4 A,,2 | G,,6 | z6 | z6 | B,,2 A,,2 G,,2 | A,,6 |[M:4/4] A,,4 A,,4 | %10
w: He is|risen in-|deed!|||Al- le- lu-|ia,|al- le-|
 A,,4 A,4- | A,4 A,,4- |[M:3/4] A,,6 |[M:5/4] F,6 D,4 | A,,6- A,,4 |] %15
w: lu- ia,|* a\-||le- lu-|ia! *|

